symbols/web/local_activity/materialsymbolssharp/local_activity_wght300_48px.svg

<svg xmlns="http://www.w3.org/2000/svg" height="48" width="48"><path d="M5 39v-9.2q1.85-.6 3.025-2.225Q9.2 25.95 9.2 24q0-1.95-1.175-3.575Q6.85 18.8 5 18.2V9h38v9.2q-1.85.6-3 2.225T38.85 24q0 1.95 1.15 3.575 1.15 1.625 3 2.225V39Zm2.25-2.25h33.5V31.4q-1.85-1.2-3.025-3.15Q36.55 26.3 36.55 24t1.175-4.25Q38.9 17.8 40.75 16.6v-5.35H7.25v5.35q1.85 1.2 3.05 3.15 1.2 1.95 1.2 4.25t-1.2 4.25Q9.1 30.2 7.25 31.4ZM19.4 31.1l4.6-3.65 4.55 3.6-1.75-5.65 4.45-3.65h-5.4L24 16.35l-1.85 5.4h-5.4l4.45 3.65ZM24 24Z"/></svg>

<svg xmlns="http://www.w3.org/2000/svg" height="48" width="48"><path d="M5 39V29.8Q6.85 29.2 8.025 27.575Q9.2 25.95 9.2 24Q9.2 22.05 8.025 20.425Q6.85 18.8 5 18.2V9H43V18.2Q41.15 18.8 40 20.425Q38.85 22.05 38.85 24Q38.85 25.95 40 27.575Q41.15 29.2 43 29.8V39ZM7.25 36.75H40.75V31.4Q38.9 30.2 37.725 28.25Q36.55 26.3 36.55 24Q36.55 21.7 37.725 19.75Q38.9 17.8 40.75 16.6V11.25H7.25V16.6Q9.1 17.8 10.3 19.75Q11.5 21.7 11.5 24Q11.5 26.3 10.3 28.25Q9.1 30.2 7.25 31.4ZM19.4 31.1 24 27.45 28.55 31.05 26.8 25.4 31.25 21.75H25.85L24 16.35L22.15 21.75H16.75L21.2 25.4ZM24 24Q24 24 24 24Q24 24 24 24Q24 24 24 24Q24 24 24 24Q24 24 24 24Q24 24 24 24Q24 24 24 24Q24 24 24 24Z"/></svg>
